_site/assets/img/01-4n/IB-IM-4-notenreeks2.svg

<svg clip-rule="evenodd" fill-rule="evenodd" stroke-linejoin="round" stroke-miterlimit="2" viewBox="0 0 502 32" xmlns="http://www.w3.org/2000/svg"><g fill="none" stroke="#000"><path d="m136.48 7.343v17.023" stroke-width=".66"/><path d="m138.741 7.343v17.023" stroke-width=".66"/><path d="m257.235 7.343v17.023" stroke-width=".66"/><path d="m259.496 7.343v17.023" stroke-width=".66"/><path d="m378.124 7.343v17.023" stroke-width=".66"/><path d="m380.384 7.343v17.023" stroke-width=".66"/><path d="m498.879 7.343v17.023" stroke-width=".66"/><path d="m501.14 7.343v17.023" stroke-width=".66"/><path d="m.032 24.366h501.374" stroke-width=".4"/><path d="m.032 20.111h501.374" stroke-width=".4"/><path d="m.032 15.855h501.374" stroke-width=".4"/><path d="m.032 11.599h501.374" stroke-width=".4"/><path d="m.032 7.343h501.374" stroke-width=".4"/></g><path d="m12.127 23.801.647 3.149c.034.188.051.358.051.528 0 1.668-1.703 3.064-3.541 3.064-.562 0-1.107-.136-1.617-.391 1.31-.137 2.298-.937 2.298-2.111 0-1.039-.851-2.128-1.941-2.128-1.242 0-2.094.953-2.094 2.196 0 1.736 1.413 2.877 3.116 2.877 2.281 0 4.221-1.481 4.221-3.609 0-.477-.749-3.847-.732-3.728 1.822-.885 3.064-2.451 3.064-4.103 0-2.264-1.821-4-4.085-4-.034 0-.272.017-.681.051l-.749-3.592c2.536-2.145 3.694-4.426 3.694-6.928 0-1.923-.766-3.966-2.315-6.111-1.754 1.413-2.758 4.239-2.758 7.252 0 1.072.136 2.11.375 3.098-3.882 3.251-5.822 6.247-5.822 8.988 0 3.217 3.319 5.89 6.928 5.89.8 0 1.396-.119 1.941-.392zm-.051-22.368c.561.579.851 1.26.851 2.06 0 1.651-1.175 3.507-3.473 5.549-.119-.493-.153-1.038-.153-1.634 0-2.86 1.055-6.009 2.468-6.009.119 0 .222.017.307.034zm.357 21.67-1.208-5.685c.238-.017.374-.034.425-.034 1.464 0 2.485 1.378 2.485 2.791 0 1.124-.595 2.111-1.702 2.928zm-1.634-5.617 1.226 5.856c-.596.323-1.26.459-2.06.459-2.758 0-5.141-2.06-5.141-4.562 0-2.264 1.685-4.596 4.868-6.979l.715 3.404c-1.77.375-3.268 1.873-3.268 3.558 0 1.43 1.021 2.434 2.553 2.673-.936-.579-1.395-1.311-1.395-2.179 0-1.175 1.089-2.043 2.502-2.23z" fill-rule="nonzero"/><path d="m22.906 28.622h9.044" fill="none" stroke="#000" stroke-width=".66"/><path d="m30.221 27.957v-14.23" fill="none" stroke="#000" stroke-width=".4"/><path d="m26.409 30.797c1.753 0 3.915-1.463 3.915-2.961 0-.903-.8-1.481-1.941-1.481-1.719 0-3.881 1.429-3.881 2.962 0 .936.834 1.48 1.907 1.48z" fill-rule="nonzero"/><path d="m57.617 25.829v-14.23" fill="none" stroke="#000" stroke-width=".4"/><path d="m53.805 28.67c1.753 0 3.915-1.464 3.915-2.962 0-.903-.8-1.481-1.941-1.481-1.719 0-3.881 1.43-3.881 2.962 0 .936.834 1.481 1.907 1.481z" fill-rule="nonzero"/><path d="m84.88 23.701v-14.23" fill="none" stroke="#000" stroke-width=".4"/><path d="m81.068 26.542c1.753 0 3.915-1.464 3.915-2.962 0-.902-.8-1.481-1.941-1.481-1.719 0-3.881 1.43-3.881 2.962 0 .936.834 1.481 1.907 1.481z" fill-rule="nonzero"/><path d="m112.276 17.318v-14.23" fill="none" stroke="#000" stroke-width=".4"/><path d="m108.464 20.158c1.753 0 3.915-1.464 3.915-2.962 0-.902-.8-1.481-1.941-1.481-1.719 0-3.881 1.43-3.881 2.962 0 .937.834 1.481 1.907 1.481z" fill-rule="nonzero"/><path d="m151.109 19.446v-14.23" fill="none" stroke="#000" stroke-width=".4"/><path d="m147.297 22.286c1.753 0 3.915-1.464 3.915-2.962 0-.902-.8-1.481-1.94-1.481-1.72 0-3.882 1.43-3.882 2.962 0 .936.835 1.481 1.907 1.481z" fill-rule="nonzero"/><path d="m178.372 17.318v-14.23" fill="none" stroke="#000" stroke-width=".4"/><path d="m174.56 20.158c1.753 0 3.915-1.464 3.915-2.962 0-.902-.8-1.481-1.94-1.481-1.72 0-3.881 1.43-3.881 2.962 0 .937.834 1.481 1.906 1.481z" fill-rule="nonzero"/><path d="m200.183 16.52v14.23" fill="none" stroke="#000" stroke-width=".4"/><path d="m201.956 18.03c1.753 0 3.915-1.464 3.915-2.962 0-.902-.8-1.481-1.94-1.481-1.72 0-3.881 1.43-3.881 2.962 0 .937.834 1.481 1.906 1.481z" fill-rule="nonzero"/><path d="m227.446 10.136v14.23" fill="none" stroke="#000" stroke-width=".4"/><path d="m229.219 11.647c1.753 0 3.915-1.464 3.915-2.962 0-.902-.8-1.481-1.94-1.481-1.72 0-3.881 1.43-3.881 2.962 0 .936.834 1.481 1.906 1.481z" fill-rule="nonzero"/><path d="m266.279 16.52v14.23" fill="none" stroke="#000" stroke-width=".4"/><path d="m268.052 18.03c1.754 0 3.916-1.464 3.916-2.962 0-.902-.801-1.481-1.941-1.481-1.719 0-3.881 1.43-3.881 2.962 0 .937.834 1.481 1.906 1.481z" fill-rule="nonzero"/><path d="m261.092 18.933 2.4-1.771c1.056-.766 1.464-1.634 1.498-2.281 0-.953-.868-1.668-1.889-1.668-.715 0-1.243.272-1.583.834l.119-5.362h-.545zm1.583-5.039c.545 0 .954.391.954.919 0 .885-1.175 2.588-2.06 3.149-.051-.289-.085-.851-.085-1.685 0-.46.034-1.021.102-1.668.255-.477.613-.715 1.089-.715z" fill-rule="nonzero"/><path d="m293.675 14.392v14.23" fill="none" stroke="#000" stroke-width=".4"/><path d="m295.448 15.903c1.754 0 3.916-1.464 3.916-2.962 0-.903-.801-1.481-1.941-1.481-1.719 0-3.881 1.43-3.881 2.962 0 .936.834 1.481 1.906 1.481z" fill-rule="nonzero"/><path d="m320.938 12.264v14.23" fill="none" stroke="#000" stroke-width=".4"/><path d="m322.711 13.775c1.754 0 3.916-1.464 3.916-2.962 0-.902-.801-1.481-1.941-1.481-1.719 0-3.881 1.43-3.881 2.962 0 .936.834 1.481 1.906 1.481z" fill-rule="nonzero"/><path d="m348.334 5.881v14.23" fill="none" stroke="#000" stroke-width=".4"/><path d="m350.107 7.391c1.754 0 3.916-1.464 3.916-2.962 0-.902-.801-1.481-1.941-1.481-1.719 0-3.881 1.43-3.881 2.962 0 .936.834 1.481 1.906 1.481z" fill-rule="nonzero"/><path d="m392.753 17.318v-14.23" fill="none" stroke="#000" stroke-width=".4"/><path d="m388.941 20.158c1.753 0 3.915-1.464 3.915-2.962 0-.902-.8-1.481-1.941-1.481-1.719 0-3.881 1.43-3.881 2.962 0 .937.834 1.481 1.907 1.481z" fill-rule="nonzero"/><path d="m414.43 16.52v14.23" fill="none" stroke="#000" stroke-width=".4"/><path d="m416.204 18.03c1.753 0 3.915-1.464 3.915-2.962 0-.902-.8-1.481-1.941-1.481-1.719 0-3.881 1.43-3.881 2.962 0 .937.834 1.481 1.907 1.481z" fill-rule="nonzero"/><path d="m413.071 21.622v-9.141l-2.604.919v-3.421h-.426v9.141l2.605-.902v3.404zm-2.604-6.843 2.179-.8v2.86l-2.179.783z" fill-rule="nonzero"/><path d="m441.826 14.392v14.23" fill="none" stroke="#000" stroke-width=".4"/><path d="m443.6 15.903c1.753 0 3.915-1.464 3.915-2.962 0-.903-.8-1.481-1.941-1.481-1.719 0-3.881 1.43-3.881 2.962 0 .936.834 1.481 1.907 1.481z" fill-rule="nonzero"/><path d="m439.185 14.881-1.634.545v-2.945l1.634-.545zm0-7.047v2.553l-1.634.545v-2.553h-.425v2.672l-.886.289v1.55l.886-.29v2.945l-.886.289v1.55l.886-.29v2.434h.425v-2.553l1.634-.545v2.554h.426v-2.673l.885-.289v-1.549l-.885.289v-2.945l.885-.289v-1.549l-.885.289v-2.434z" fill-rule="nonzero"/><path d="m469.089 8.008v14.23" fill="none" stroke="#000" stroke-width=".4"/><path d="m470.863 9.519c1.753 0 3.915-1.464 3.915-2.962 0-.902-.8-1.481-1.941-1.481-1.719 0-3.881 1.43-3.881 2.962 0 .936.834 1.481 1.907 1.481z" fill-rule="nonzero"/><path d="m466.448 8.498-1.634.544v-2.945l1.634-.544zm0-7.048v2.554l-1.634.544v-2.553h-.425v2.673l-.886.289v1.549l.886-.289v2.945l-.886.289v1.549l.886-.289v2.434h.425v-2.554l1.634-.544v2.553h.426v-2.672l.885-.29v-1.549l-.885.29v-2.945l.885-.29v-1.549l-.885.29v-2.435z" fill-rule="nonzero"/></svg>

<?xml version="1.0" encoding="UTF-8" standalone="no"?>
<!DOCTYPE svg PUBLIC "-//W3C//DTD SVG 1.1//EN" "http://www.w3.org/Graphics/SVG/1.1/DTD/svg11.dtd">
<svg width="100%" height="100%" viewBox="0 0 502 32" version="1.1" xmlns="http://www.w3.org/2000/svg" xmlns:xlink="http://www.w3.org/1999/xlink" xml:space="preserve" xmlns:serif="http://www.serif.com/" style="fill-rule:evenodd;clip-rule:evenodd;stroke-linejoin:round;stroke-miterlimit:2;">
    <g>
        <path d="M136.48,7.343L136.48,24.366" style="fill:none;stroke:black;stroke-width:0.66px;"/>
        <path d="M138.741,7.343L138.741,24.366" style="fill:none;stroke:black;stroke-width:0.66px;"/>
        <path d="M257.235,7.343L257.235,24.366" style="fill:none;stroke:black;stroke-width:0.66px;"/>
        <path d="M259.496,7.343L259.496,24.366" style="fill:none;stroke:black;stroke-width:0.66px;"/>
        <path d="M378.124,7.343L378.124,24.366" style="fill:none;stroke:black;stroke-width:0.66px;"/>
        <path d="M380.384,7.343L380.384,24.366" style="fill:none;stroke:black;stroke-width:0.66px;"/>
        <path d="M498.879,7.343L498.879,24.366" style="fill:none;stroke:black;stroke-width:0.66px;"/>
        <path d="M501.14,7.343L501.14,24.366" style="fill:none;stroke:black;stroke-width:0.66px;"/>
        <path d="M0.032,24.366L501.406,24.366" style="fill:none;stroke:black;stroke-width:0.4px;"/>
        <path d="M0.032,20.111L501.406,20.111" style="fill:none;stroke:black;stroke-width:0.4px;"/>
        <path d="M0.032,15.855L501.406,15.855" style="fill:none;stroke:black;stroke-width:0.4px;"/>
        <path d="M0.032,11.599L501.406,11.599" style="fill:none;stroke:black;stroke-width:0.4px;"/>
        <path d="M0.032,7.343L501.406,7.343" style="fill:none;stroke:black;stroke-width:0.4px;"/>
        <path d="M12.127,23.801L12.774,26.95C12.808,27.138 12.825,27.308 12.825,27.478C12.825,29.146 11.122,30.542 9.284,30.542C8.722,30.542 8.177,30.406 7.667,30.151C8.977,30.014 9.965,29.214 9.965,28.04C9.965,27.001 9.114,25.912 8.024,25.912C6.782,25.912 5.93,26.865 5.93,28.108C5.93,29.844 7.343,30.985 9.046,30.985C11.327,30.985 13.267,29.504 13.267,27.376C13.267,26.899 12.518,23.529 12.535,23.648C14.357,22.763 15.599,21.197 15.599,19.545C15.599,17.281 13.778,15.545 11.514,15.545C11.48,15.545 11.242,15.562 10.833,15.596L10.084,12.004C12.62,9.859 13.778,7.578 13.778,5.076C13.778,3.153 13.012,1.11 11.463,-1.035C9.709,0.378 8.705,3.204 8.705,6.217C8.705,7.289 8.841,8.327 9.08,9.315C5.198,12.566 3.258,15.562 3.258,18.303C3.258,21.52 6.577,24.193 10.186,24.193C10.986,24.193 11.582,24.074 12.127,23.801ZM12.076,1.433C12.637,2.012 12.927,2.693 12.927,3.493C12.927,5.144 11.752,7 9.454,9.042C9.335,8.549 9.301,8.004 9.301,7.408C9.301,4.548 10.356,1.399 11.769,1.399C11.888,1.399 11.991,1.416 12.076,1.433ZM12.433,23.103L11.225,17.418C11.463,17.401 11.599,17.384 11.65,17.384C13.114,17.384 14.135,18.762 14.135,20.175C14.135,21.299 13.54,22.286 12.433,23.103ZM10.799,17.486L12.025,23.342C11.429,23.665 10.765,23.801 9.965,23.801C7.207,23.801 4.824,21.741 4.824,19.239C4.824,16.975 6.509,14.643 9.692,12.26L10.407,15.664C8.637,16.039 7.139,17.537 7.139,19.222C7.139,20.652 8.16,21.656 9.692,21.895C8.756,21.316 8.297,20.584 8.297,19.716C8.297,18.541 9.386,17.673 10.799,17.486Z" style="fill-rule:nonzero;"/>
        <path d="M22.906,28.622L31.95,28.622" style="fill:none;stroke:black;stroke-width:0.66px;"/>
        <path d="M30.221,27.957L30.221,13.727" style="fill:none;stroke:black;stroke-width:0.4px;"/>
        <path d="M26.409,30.797C28.162,30.797 30.324,29.334 30.324,27.836C30.324,26.933 29.524,26.355 28.383,26.355C26.664,26.355 24.502,27.784 24.502,29.317C24.502,30.253 25.336,30.797 26.409,30.797Z" style="fill-rule:nonzero;"/>
        <path d="M57.617,25.829L57.617,11.599" style="fill:none;stroke:black;stroke-width:0.4px;"/>
        <path d="M53.805,28.67C55.558,28.67 57.72,27.206 57.72,25.708C57.72,24.805 56.92,24.227 55.779,24.227C54.06,24.227 51.898,25.657 51.898,27.189C51.898,28.125 52.732,28.67 53.805,28.67Z" style="fill-rule:nonzero;"/>
        <path d="M84.88,23.701L84.88,9.471" style="fill:none;stroke:black;stroke-width:0.4px;"/>
        <path d="M81.068,26.542C82.821,26.542 84.983,25.078 84.983,23.58C84.983,22.678 84.183,22.099 83.042,22.099C81.323,22.099 79.161,23.529 79.161,25.061C79.161,25.997 79.995,26.542 81.068,26.542Z" style="fill-rule:nonzero;"/>
        <path d="M112.276,17.318L112.276,3.088" style="fill:none;stroke:black;stroke-width:0.4px;"/>
        <path d="M108.464,20.158C110.217,20.158 112.379,18.694 112.379,17.196C112.379,16.294 111.579,15.715 110.438,15.715C108.719,15.715 106.557,17.145 106.557,18.677C106.557,19.614 107.391,20.158 108.464,20.158Z" style="fill-rule:nonzero;"/>
        <path d="M151.109,19.446L151.109,5.216" style="fill:none;stroke:black;stroke-width:0.4px;"/>
        <path d="M147.297,22.286C149.05,22.286 151.212,20.822 151.212,19.324C151.212,18.422 150.412,17.843 149.272,17.843C147.552,17.843 145.39,19.273 145.39,20.805C145.39,21.741 146.225,22.286 147.297,22.286Z" style="fill-rule:nonzero;"/>
        <path d="M178.372,17.318L178.372,3.088" style="fill:none;stroke:black;stroke-width:0.4px;"/>
        <path d="M174.56,20.158C176.313,20.158 178.475,18.694 178.475,17.196C178.475,16.294 177.675,15.715 176.535,15.715C174.815,15.715 172.654,17.145 172.654,18.677C172.654,19.614 173.488,20.158 174.56,20.158Z" style="fill-rule:nonzero;"/>
        <path d="M200.183,16.52L200.183,30.75" style="fill:none;stroke:black;stroke-width:0.4px;"/>
        <path d="M201.956,18.03C203.709,18.03 205.871,16.566 205.871,15.068C205.871,14.166 205.071,13.587 203.931,13.587C202.211,13.587 200.05,15.017 200.05,16.549C200.05,17.486 200.884,18.03 201.956,18.03Z" style="fill-rule:nonzero;"/>
        <path d="M227.446,10.136L227.446,24.366" style="fill:none;stroke:black;stroke-width:0.4px;"/>
        <path d="M229.219,11.647C230.972,11.647 233.134,10.183 233.134,8.685C233.134,7.783 232.334,7.204 231.194,7.204C229.474,7.204 227.313,8.634 227.313,10.166C227.313,11.102 228.147,11.647 229.219,11.647Z" style="fill-rule:nonzero;"/>
        <path d="M266.279,16.52L266.279,30.75" style="fill:none;stroke:black;stroke-width:0.4px;"/>
        <path d="M268.052,18.03C269.806,18.03 271.968,16.566 271.968,15.068C271.968,14.166 271.167,13.587 270.027,13.587C268.308,13.587 266.146,15.017 266.146,16.549C266.146,17.486 266.98,18.03 268.052,18.03Z" style="fill-rule:nonzero;"/>
        <path d="M261.092,18.933L263.492,17.162C264.548,16.396 264.956,15.528 264.99,14.881C264.99,13.928 264.122,13.213 263.101,13.213C262.386,13.213 261.858,13.485 261.518,14.047L261.637,8.685L261.092,8.685L261.092,18.933ZM262.675,13.894C263.22,13.894 263.629,14.285 263.629,14.813C263.629,15.698 262.454,17.401 261.569,17.962C261.518,17.673 261.484,17.111 261.484,16.277C261.484,15.817 261.518,15.256 261.586,14.609C261.841,14.132 262.199,13.894 262.675,13.894Z" style="fill-rule:nonzero;"/>
        <path d="M293.675,14.392L293.675,28.622" style="fill:none;stroke:black;stroke-width:0.4px;"/>
        <path d="M295.448,15.903C297.202,15.903 299.364,14.439 299.364,12.941C299.364,12.038 298.563,11.46 297.423,11.46C295.704,11.46 293.542,12.89 293.542,14.422C293.542,15.358 294.376,15.903 295.448,15.903Z" style="fill-rule:nonzero;"/>
        <path d="M320.938,12.264L320.938,26.494" style="fill:none;stroke:black;stroke-width:0.4px;"/>
        <path d="M322.711,13.775C324.465,13.775 326.627,12.311 326.627,10.813C326.627,9.911 325.826,9.332 324.686,9.332C322.967,9.332 320.805,10.762 320.805,12.294C320.805,13.23 321.639,13.775 322.711,13.775Z" style="fill-rule:nonzero;"/>
        <path d="M348.334,5.881L348.334,20.111" style="fill:none;stroke:black;stroke-width:0.4px;"/>
        <path d="M350.107,7.391C351.861,7.391 354.023,5.927 354.023,4.429C354.023,3.527 353.222,2.948 352.082,2.948C350.363,2.948 348.201,4.378 348.201,5.91C348.201,6.846 349.035,7.391 350.107,7.391Z" style="fill-rule:nonzero;"/>
        <path d="M392.753,17.318L392.753,3.088" style="fill:none;stroke:black;stroke-width:0.4px;"/>
        <path d="M388.941,20.158C390.694,20.158 392.856,18.694 392.856,17.196C392.856,16.294 392.056,15.715 390.915,15.715C389.196,15.715 387.034,17.145 387.034,18.677C387.034,19.614 387.868,20.158 388.941,20.158Z" style="fill-rule:nonzero;"/>
        <path d="M414.43,16.52L414.43,30.75" style="fill:none;stroke:black;stroke-width:0.4px;"/>
        <path d="M416.204,18.03C417.957,18.03 420.119,16.566 420.119,15.068C420.119,14.166 419.319,13.587 418.178,13.587C416.459,13.587 414.297,15.017 414.297,16.549C414.297,17.486 415.131,18.03 416.204,18.03Z" style="fill-rule:nonzero;"/>
        <path d="M413.071,21.622L413.071,12.481L410.467,13.4L410.467,9.979L410.041,9.979L410.041,19.12L412.646,18.218L412.646,21.622L413.071,21.622ZM410.467,14.779L412.646,13.979L412.646,16.839L410.467,17.622L410.467,14.779Z" style="fill-rule:nonzero;"/>
        <path d="M441.826,14.392L441.826,28.622" style="fill:none;stroke:black;stroke-width:0.4px;"/>
        <path d="M443.6,15.903C445.353,15.903 447.515,14.439 447.515,12.941C447.515,12.038 446.715,11.46 445.574,11.46C443.855,11.46 441.693,12.89 441.693,14.422C441.693,15.358 442.527,15.903 443.6,15.903Z" style="fill-rule:nonzero;"/>
        <path d="M439.185,14.881L437.551,15.426L437.551,12.481L439.185,11.936L439.185,14.881ZM439.185,7.834L439.185,10.387L437.551,10.932L437.551,8.379L437.126,8.379L437.126,11.051L436.24,11.34L436.24,12.89L437.126,12.6L437.126,15.545L436.24,15.834L436.24,17.384L437.126,17.094L437.126,19.528L437.551,19.528L437.551,16.975L439.185,16.43L439.185,18.984L439.611,18.984L439.611,16.311L440.496,16.022L440.496,14.473L439.611,14.762L439.611,11.817L440.496,11.528L440.496,9.979L439.611,10.268L439.611,7.834L439.185,7.834Z" style="fill-rule:nonzero;"/>
        <path d="M469.089,8.008L469.089,22.238" style="fill:none;stroke:black;stroke-width:0.4px;"/>
        <path d="M470.863,9.519C472.616,9.519 474.778,8.055 474.778,6.557C474.778,5.655 473.978,5.076 472.837,5.076C471.118,5.076 468.956,6.506 468.956,8.038C468.956,8.974 469.79,9.519 470.863,9.519Z" style="fill-rule:nonzero;"/>
        <path d="M466.448,8.498L464.814,9.042L464.814,6.097L466.448,5.553L466.448,8.498ZM466.448,1.45L466.448,4.004L464.814,4.548L464.814,1.995L464.389,1.995L464.389,4.668L463.503,4.957L463.503,6.506L464.389,6.217L464.389,9.162L463.503,9.451L463.503,11L464.389,10.711L464.389,13.145L464.814,13.145L464.814,10.591L466.448,10.047L466.448,12.6L466.874,12.6L466.874,9.928L467.759,9.638L467.759,8.089L466.874,8.379L466.874,5.434L467.759,5.144L467.759,3.595L466.874,3.885L466.874,1.45L466.448,1.45Z" style="fill-rule:nonzero;"/>
    </g>
</svg>
